X:48
T:Hornpipe. Le4.048
B:L.Leadley MS#4 c1850
Z:Village Music Project, 2016 Steve Mansfield
M:C|
L:1/8
Q:2/4=75
C:B Mates
N:* note length is c2 / f2 in Mss
K:F
c | f3g a3g | (fe).f.d "*".c3B | Acfe dcBA | B2G2G2 zc |
f3g a3g | (fe).f.e .c3B | Acfa bgfe | f2a2"*"f3 :|
|: g/a/ | bagf efga | gfed cz fe | dcBA BcAB | G2g2g2 z g/a/ |
bagf efga | gfed "*".c3B | Adga bgfe | f2a2"*"f3 :|

